X: 1
M: 3/4
L: 1/8
K: D
|: FG | "D"A2 fe dc | "G"d2 B2 G2 | "D"A3 BAF | D2 F2 Ad | "A7"c3 def | g2 e2 c2 |1,3 "D"d2 f2 d2 | "A7"A2 {B}AG :|2,4 "D"d3 edc | d4 :|
|: dc | "G"B2 BG Bc | d2 ed cB | "D"A2 d2 e2 | f4 fa | "A7"g2 e2 c2 | AB AG FE | "D"D2 F2 G2 | A4  ||
|  dc | "G"B2 BG Bc | d2 ed cB | "D"A2 d2 e2 | f4 fa | "A7"ga gf ed | cd cA Bc | "D"d2 f2 e2 | d4 :|
